X:1                   % tune no 1
T:Dusty Miller, The   % title
T:Binny's Jig         % an alternative title
C:Trad.               % traditional
R:DH                  % double hornpipe
M:3/4                 % meter
K:G                   % key
B>cd BAG|FA Ac BA|B>cd BAG|DG GB AG:|
Bdd gfg|aA Ac BA|Bdd gfa|gG GB AG:|
